X:109
T:Lady Stewarts Reel. VWMLa.109
%%VWML:Anon2-3049-p62-0
F:http://www.vwml.org/record/Anon2/3049/p62
S:Anon. MS, late 18thC, Vaughan Williams Mem. Library
O:England;Yorkshire
Z:vmp/efdss.Simon Wilson. Reviewed PJH 2008.
M:C|
L:1/8
Q:1/2=90
K:D
DdAF DdAF|GBAF E/E/EE2|DdAF DdAF|GECE D/D/DD2:|
|:fdfd gdgd|efge e/e/ee2|fdfd gdgd|fdaf d/d/dd2:|
T:Irish Gimblet. VWMLa.110
R:Jig
S:Anon. MS, late 18thC, Vaughan Williams Mem. Library
O:England;Yorkshire
Z:vmp/efdss.Simon Wilson. Reviewed PJH 2008.
M:6/8
L:1/8
Q:3/8=120
K:G
"Properly in 9/8"\
(B/c/d).B GBG|G3 (B/c/d).B|A2B cBA|\
(B/c/d).B GBG|G2g a2A|A2B cBA:|\
|:g2g gbg|fed g2g|g2a bag|\
gag bag|gfe a2A|A2B cBA:|
